icon_installer/data/icons/scalable/actions/show-color-picker-symbolic.svg

<?xml version="1.0" encoding="UTF-8"?>
<svg height="16px" viewBox="0 0 16 16" width="16px" xmlns="http://www.w3.org/2000/svg">
    <path d="m 12.957031 0.980469 c -0.523437 0.015625 -1.015625 0.234375 -1.375 0.605469 l -1.585937 1.585937 l -1.085938 -1.085937 c -0.097656 -0.09375 -0.226562 -0.148438 -0.363281 -0.148438 c -0.128906 0.003906 -0.253906 0.054688 -0.34375 0.148438 l -2.121094 2.121093 c -0.195312 0.195313 -0.195312 0.511719 0 0.707031 l 0.644531 0.648438 l -5.585937 5.582031 c -0.09375 0.097657 -0.144531 0.222657 -0.144531 0.355469 v 1.792969 l -0.855469 0.851562 c -0.1953125 0.195313 -0.1953125 0.515625 0 0.710938 l 1 1 c 0.195313 0.191406 0.511719 0.191406 0.707031 0 l 0.855469 -0.855469 h 1.792969 c 0.128906 0 0.257812 -0.050781 0.351562 -0.144531 l 5.585938 -5.585938 l 0.648437 0.644531 c 0.191407 0.195313 0.511719 0.195313 0.707031 0 l 2.121094 -2.121093 c 0.191406 -0.195313 0.191406 -0.511719 0 -0.707031 l -1.085937 -1.085938 l 1.585937 -1.585938 c 1.304688 -1.273437 0.367188 -3.488281 -1.453125 -3.433593 z m -5.023437 5.789062 l 1.292968 1.292969 l -2.9375 2.9375 h -2.585937 z m 0 0" fill="#222222"/>
</svg>

<svg xmlns="http://www.w3.org/2000/svg" width="16" height="16"><path fill="#222" d="M12.957.98a1.996 1.996 0 0 0-1.375.606L9.996 3.172 8.91 2.086a.525.525 0 0 0-.363-.148.495.495 0 0 0-.344.148L6.082 4.207a.5.5 0 0 0 0 .707l.645.649-5.586 5.582a.51.51 0 0 0-.145.355v1.793l-.855.852a.505.505 0 0 0 0 .71l1 1a.507.507 0 0 0 .707 0L2.703 15h1.793a.5.5 0 0 0 .352-.145l5.586-5.585.648.644a.5.5 0 0 0 .707 0l2.121-2.121a.507.507 0 0 0 0-.707L12.824 6l1.586-1.586c1.305-1.273.367-3.488-1.453-3.434zM7.934 6.77l1.293 1.293L6.289 11H3.703zm0 0"/></svg>
